!!!COM: Music21
!!!OTL: Pericote
!!!OMV: pezas_pasodobles_pericote_pericote-partitura.musicxml
**kern
*I"Bagpipes
*I'Bag
*clefG^2
*k[]
*M2/4
=1
!LO:TX:a:t=Allegro
*MM132
!LO:TX:a:t=[quarter]=132
4.r
8gg
=||
4cc
4ee
=
4.gg
8gg
=
8ggL
8aaJ
8ggL
8ffJ
=
4gg
4gg
=
4.aa
8gg
=
4ee
8ggL
8ggJ
=
4ff
4dd
=
2cc
=
4ee
4gg
=
8ggL
8aaJ
8ggL
8ffJ
=
4ee
4dd
=
4ee
8eeL
8ffJ
!!linebreak:original
=
4gg
8ggL
8ggJ
!!linebreak:original
=
4dd
4ff
=
4ee
4dd
=
4cc
8ccL
8ddJ
=
4cc
4ee
=
4gg
8ggL
8ggJ
=
8ggL
8aaJ
8ggL
8ffJ
=
4gg
4gg
=
4.aa
8gg
=
4ee
8ggL
8ggJ
=
4ff
4dd
=
2cc
=
4ee
4ff
=
4ff
8ggL
8ggJ
=
4ee
4dd
!!linebreak:original
=
4ee
8eeL
8ffJ
!!linebreak:original
=
4gg
8ggL
8ggJ
=
4dd
4ff
=
4ee
4dd
=
8.ccL
16ddJk
8.ccL
16ggJk
=
4cc
4dd
=
4ee
4ff
=
4ee
4ee
=
4ff
8ggL
8aaJ
=
4gg
4gg
=
4ee
8ggL
8ggJ
=
4ff
4dd
=
4cc
4cc
=
4ee
4ff
!!linebreak:original
=
4ff
8ggL
8ggJ
=
4ee
4dd
!!linebreak:original
=
4ee
8eeL
8ffJ
=
4gg
8ggL
8ggJ
=
4dd
4ff
=||
*k[b-]
*F:
4ee
4dd
=
4cc
8ccL
8ddJ
=
4cc
4gg
=
4.ccc
8ddd
=
8cccL
8dddJ
8cccL
8bbnJ
=
2ccc
=
4.ddd
8ccc
=
4aa
4ccc
=
4bb-
4gg
=
8ffL
8eeJ
8ffL
8ggJ
!!linebreak:original
=
4cc
8cccL
8eeeJ
!!linebreak:original
=
8cccL
8eeeJ
8cccL
8bb-J
=
4aa
4gg
=
4.aa
8bb-
=
8cccL
8eeeJ
8cccL
8bb-J
=
4aa
4ccc
=
4bb-
4gg
=
4ff
8eeL
8ddJ
=
4cc
4gg
=
4.ccc
8ddd
=
8cccL
8dddJ
8cccL
8bbnJ
=
2ccc
=
4.ddd
8ccc
=
4aa
4ccc
!!linebreak:original
=
4bb-
4gg
!!linebreak:original
=
8ffL
8eeJ
8ffL
8ggJ
=
4cc
8cccL
8eeeJ
=
8cccL
8eeeJ
8cccL
8bb-J
=
4aa
4gg
=
4.aa
8bb-
=
8cccL
8eeeJ
8cccL
8bb-J
=
4aa
4ccc
=
4bb-
4gg
=
4ff
8ffL
8eeJ
=
4ff
4gg
=
4aa
4bb-
=
*k[]
*C:
4bb-X
4aa
!!linebreak:original
=
4bb-X
8cccL
8dddJ
!!pagebreak:original
=
8cccL
8dddJ
8cccL
8bb-XJ
=
4aa
4ccc
=
4bb-X
4gg
=
4ff
8eeL
8ddJ
=
4cc
4ee
=
4.gg
8gg
=
8ggL
8aaJ
8ggL
8ffJ
=
4gg
4gg
=
4.aa
8gg
=
4ee
8eeL
8ggJ
=
4ff
4dd
=
2cc
=
4ee
4gg
!!linebreak:original
=
8ggL
8aaJ
8ggL
8ffJ
!!linebreak:original
=
4ee
4dd
=
4ee
8eeL
8ffJ
=
8ggL
8aaJ
8ggL
8aaJ
=
8ddL
8bJ
8ddL
8ffJ
=
4ee
4dd
=
8ccL
8ddJ
8ccL
8bJ
=
4cc
4ee
=
4.gg
8gg
=
8ggL
8aaJ
8ggL
8ffJ
=
4gg
4gg
=
4aa
4gg
=
4ee
8eeL
8ggJ
!!linebreak:original
=
4ff
4dd
=
4cc
4cc
!!linebreak:original
=
4ee
4ff
=
4ff
8ggL
8ggJ
=
4ee
4dd
=
4ee
8eeL
8ffJ
=
8ggL
8aaJ
8ggL
8aaJ
=
8ddL
8bJ
8ddL
8ffJ
=
4ee
4dd
=
2cc
=
4.aa
8gg
=
4ff
4ff
=
8ggL
8cccJ
8ggL
8ffJ
=
4ee
8eeL
8eeJ
=
8ffL
8ggJ
8ffL
8eeJ
!!linebreak:original
=
4dd
8ddL
8ddJ
=
8eeL
8ffJ
8eeL
8ddJ
=
2cc
=
4.aa
8gg
=
8ffL
8ffJ
8ggL
8aaJ
=
8bbL
8aaJ
8ggL
8ffJ
=
8eeL
8eeJ
8ffL
8ggJ
=
8cccL
8ggJ
8ffL
8eeJ
=
8ddL
8ddJ
8eeL
8ffJ
=
8ggL
8ffJ
8eeL
8ddJ
=
4cc
8ggL
8ggJ
!!linebreak:original
=
4cc
8ddL
8eeJ
!!pagebreak:original
=
8eeL
8ffJ
8eeL
8ddJ
=
8ccL
8ddJ
8ccL
8bJ
=
4cc
4cc
=
4cc
4dd
=
4ee
4ff
=
4ee
4ee
=
4ff
8ggL
8aaJ
=
4gg
4gg
=
4ee
8ggL
8ggJ
=
4ff
4dd
=
4cc
4cc
=
4ee
4gg
=
8ggL
8cccJ
8ggL
8ffJ
!!linebreak:original
=
4ee
4dd
!!linebreak:original
=
4ee
8eeL
8ffJ
=
8ggL
8aaJ
8ggL
8aaJ
=
8ddL
8bJ
8ddL
8ffJ
=
4ee
4dd
=
4.cc
8b
=
4cc
8ggL
8cccJ
=
8cccL
8eeeJ
[4fff
=
4fff]
12eeeL
12ddd
12cccJ
=
4aa
4gg
=
4ff
4ee
=
4dd
4cc
=
12bL
12cc
12ddJ
4ee
!!linebreak:original
=
12ddL
12cc
12bJ
4dd
!!linebreak:original
=
2cc
=||
8gg
8r
4r
==
*-
